images/icon-role.svg

<svg fill="none" height="40" viewBox="0 0 40 40" width="40" xmlns="http://www.w3.org/2000/svg"><g stroke="#ff512f" stroke-linecap="round" stroke-linejoin="round" stroke-width="3.33333"><path d="m33.3332 35v-3.3333c0-1.7681-.7024-3.4638-1.9527-4.7141-1.2502-1.2502-2.9459-1.9526-4.714-1.9526h-13.3333c-1.7681 0-3.46383.7024-4.71407 1.9526-1.25025 1.2503-1.95263 2.946-1.95263 4.7141v3.3333"/><path d="m20.0002 18.3333c3.6819 0 6.6666-2.9847 6.6666-6.6666 0-3.68193-2.9847-6.6667-6.6666-6.6667s-6.6667 2.98477-6.6667 6.6667c0 3.6819 2.9848 6.6666 6.6667 6.6666z"/></g></svg>

<svg width="40" height="40" viewBox="0 0 40 40" fill="none" xmlns="http://www.w3.org/2000/svg">
<path d="M33.3332 35V31.6667C33.3332 29.8986 32.6308 28.2029 31.3805 26.9526C30.1303 25.7024 28.4346 25 26.6665 25H13.3332C11.5651 25 9.86937 25.7024 8.61913 26.9526C7.36888 28.2029 6.6665 29.8986 6.6665 31.6667V35" stroke="#FF512F" stroke-width="3.33333" stroke-linecap="round" stroke-linejoin="round"/>
<path d="M20.0002 18.3333C23.6821 18.3333 26.6668 15.3486 26.6668 11.6667C26.6668 7.98477 23.6821 5 20.0002 5C16.3183 5 13.3335 7.98477 13.3335 11.6667C13.3335 15.3486 16.3183 18.3333 20.0002 18.3333Z" stroke="#FF512F" stroke-width="3.33333" stroke-linecap="round" stroke-linejoin="round"/>
</svg>
